!!!!SEGMENT: pl-lzu--m-15111--001-032_noskowski-zygmunt--spiewnik-dla-dzieci-op-34-32-w-lesie.krn
!!!cenid: 18xx:4729
!!!COM: Noskowski, Zygmunt
!!!COM-rismID: pe106604
!!!CDT: 1846/05/02-1909/07/23
!!!CNT: Polish
!!!GTL: Śpiewnik dla dzieci, op. 34
!!!OTL: 32. W lesie
!!!OMV: 032
!!!PDT: 1890
!!!AGN: Secular; Song; Children
!!!YEC: Copyright 2022 Narodowy Instytut Fryderyka Chopina (https://polishscores.org)
!!!YEM: License CC-BY-4.0 (https://creativecommons.org/licenses/by/4.0)
!!!SMS-siglum: PL-LŹu
!!!SMS-shelfmark: M 15111
!!!SMS-variant:
!!!SMS-altvar:
!!!SMS-shelfwork: 001-032 G
!!!NIFC-rismSourceID: 1001234040
!!!NIFC-rismChildID: 1001234040
!!!NIFC-islandoraID: pl-lzu:5455
!!!URL-pdf-islandora: https://repozytorium.nifc.pl/islandora/object/pl-lzu%3A5455/datastream/PDF/view
!!!URL-scan: https://polish.musicsources.pl/pl/lokalizacje/galeria/druki-muzyczne/23228/39 @EN{Scan on Polish Music Sources Website} @PL{Skany w portalu Dziedzictwo Muzyki Polskiej w otwartym dostępie}
!!!IIIF:
!!!ONB-nifc:
!!!AIN: 1 piano 1 vox
!!!key: A
!!!OMD: Allegretto pastorale.
**kern	**kern	**dynam	**kern	**text	**text	**text	**dynam
*part2	*part2	*part2	*part1	*part1	*part1	*part1	*part1
*staff3	*staff2	*staff2,3	*staff1	*staff1	*staff1	*staff1	*staff1
*I"[Piano]	*I"[Piano]	*	*I"[Voice]	*	*	*	*
*I'pf	*I'pf	*	*I'V	*	*	*	*
*Ipiano	*Ipiano	*	*Ivox	*	*	*	*
*ICklav	*ICklav	*	*ICvox	*	*	*	*
*IGacomp	*IGacomp	*	*IGsolo	*	*	*	*
*>[A,A,A]	*>[A,A,A]	*>[A,A,A]	*>[A,A,A]	*>[A,A,A]	*>[A,A,A]	*>[A,A,A]	*>[A,A,A]
*>A	*>A	*>A	*>A	*>A	*>A	*>A	*>A
*clefF4	*clefG2	*	*clefG2	*	*	*	*
*k[f#c#g#]	*k[f#c#g#]	*	*k[f#c#g#]	*	*	*	*
*A:	*A:	*	*A:	*	*	*	*
*M3/4	*M3/4	*	*M3/4	*	*	*	*
=1	=1	=1	=1	=1	=1	=1	=1
!	!LO:TX:a:i:t=Cokolwiek żwawo.	!	!	!	!	!	!
2E 2AA/	4r	f	2.r	.	.	.	.
.	4e 4c#/	.	.	.	.	.	.
[4E [4AA/	4r	.	.	.	.	.	.
=2	=2	=2	=2	=2	=2	=2	=2
*	*	*	*	*v:1	*v:2	*v:3	*
4E] 4AA/]	4e 4c#/	.	4r	.	.	.	.
4E 4AA/	4r	.	4r	.	.	.	.
!	!	!	!	!	!	!	!LO:DY:rj
4r	4e 4c#/	.	4e 4c#/	Za-	A	u-	f
=3	=3	=3	=3	=3	=3	=3	=3
2E 2AA/	4a 4c#/	.	4a 4c#/	-wi-	ty	-de-	.
.	4.b 4.d/	.	4.b 4.d^>/	-tał	czar-	-rzy-	.
4E 4AA/	.	.	.	.	.	.	.
.	8g# 8e/	.	8g# 8e/	nam	-ny	-ły	.
=4	=4	=4	=4	=4	=4	=4	=4
2E 2AA/	(8aL 8c#/	.	(8aL 8c#/	dzio-	le-	de-	.
.	8bJ 8e/	.	8bJ 8e/)	.	.	.	.
.	4cc# 4a/)	.	4cc# 4a/	-nek	-sie,	-szcze,	.
4E 4AA/	4r	.	4r	.	.	.	.
=5	=5	=5	=5	=5	=5	=5	=5
2E 2AA/	(8ddL 8f#/	.	8dd 8f#/	I	A	Przy-	.
.	8cc#J 8a/	.	8cc# 8a/	po-	ty	-szło	.
.	4b 4g#/)	<	4b 4g#/	-go-	le-	słon-	<
4E 4AA/	(8g#L 8e/	.	(8g#L 8e/	-dny	-sie	-ko	.
.	8bJ 8d/)	[	8bJ 8d/)	.	.	.	[
!!LO:LB:g=original
=6	=6	=6	=6	=6	=6	=6	=6
*	*	*	*	*v:1	*v:2	*v:3	*
*	*	*	*^	*	*	*	*
2E 2AA/	(8c#/L	.	2ee 2c#/	2ryy	czas.	nasz!	wraz,	.
.	8e/J	.	.	.	.	.	.	.
.	4ee 4a\)	.	.	.	.	.	.	.
4E 4AA/	8r	.	8r	8ryy	.	.	.	.
.	8e/	.	8e/	8e\	Pój-	A	Za-	.
*	*	*	*v	*v	*	*	*	*
=7	=7	=7	=7	=7	=7	=7	=7
2E 2EE/	4g# 4d/	.	4g# 4d/	-dzie-	zkąd-	-ro-	.
.	4.f# 4.d/	.	4.f# 4.d/	-my,	-że	-dzi-	.
4E 4EE/	.	.	.	.	.	.	.
.	8e 8d/	.	8e 8d/	pój-	ty	-ła	.
=8	=8	=8	=8	=8	=8	=8	=8
2E 2AA/	(8cc#L 8c#/	.	(8cc#L 8c#/	-dzie-	ty-	zie-	.
.	8bJ 8e/	.	8bJ 8e/)	.	.	.	.
.	4a 4c#/)	.	4a 4c#/	-my	-le	-mia	.
4E 4AA/	4r	.	4r	.	.	.	.
=9	=9	=9	=9	=9	=9	=9	=9
*	*^	*	*^	*	*	*	*
4E 4BB/	(8aL 8d/	2ryy	.	8a 8d/	2ryy	Na	Tych	W do-	.
.	8g#/J	.	.	8g# 8d/	.	ja-	ja-	-bry,	.
2E 2EE/	4b 4d/)	.	.	4b 4d/	.	-go-	-gó-	bło-	.
.	8f#/L	4d 4G#\	.	8f#/L	4d\	-dy	-dek	-gi	.
.	8e/J	.	.	8e/J	.	.	.	.	.
!!LO:PB:g=original
=10	=10	=10	=10	=10	=10	=10	=10	=10	=10
*	*	*	*	*	*	*v:1	*v:2	*v:3	*
2E 2AA/	(8e/L	2c# 2A\	.	(<8e/L	2c#\	w las.	masz?	czas.	.
.	8f#/J	.	.	8f#/J	.	.	.	.	.
.	4a/)	.	.	4a/)	.	.	.	.	.
4E 4AA/	4r	4ryy	.	4r	4ryy	.	.	.	.
*	*	*	*	*v	*v	*	*	*	*
*	*v	*v	*	*	*	*	*	*
=11	=11	=11	=11	=11	=11	=11	=11
4E 4BB/	(8eL 8d/	.	8e 8d/	Na	I	Te	.
.	8g#J 8d/	.	8g# 8d/	ja-	po-	ja-	.
4E 4GG#/	4.b 4.d/	.	4.b 4.d/	-go-	-ziom-	-go-	.
4E 4EE/	.	.	.	.	.	.	.
.	8cc# 8e/)	.	8cc# 8e/	-dy,	-ki	-dy,	.
=12	=12	=12	=12	=12	=12	=12	=12
4E 4EE/	(8ddL 8f#/	.	8dd 8f#/	Na	I	Te	.
.	8bJ 8g#/	.	8b 8g#/	ma-	ma-	ma-	.
2E 2AA/	8cc#L 8a/	.	(8cc#L 8a/	-li-	-li-	-li-	.
.	8bJ 8e/	.	8bJ 8e/)	.	.	.	.
.	4a 4c#/)	.	4a 4c#,/	-ny,	-ny,	-ny,	.
=13	=13	=13	=13	=13	=13	=13	=13
4E 4BB/	(8eL 8d/	.	8e 8d/	Na	I	Te	.
.	8g#J 8d/	.	8g# 8d/	czar-	czer-	czer-	.
4E 4GG#/	4.b 4.d/	.	4.b 4.d/	-nia-	-ni-	-ni-	.
4E 4EE/	.	.	.	.	.	.	.
.	8cc# 8e/)	.	8cc# 8e/	-we	-ce,	-ce,	.
!!LO:LB:g=original
=14	=14	=14	=14	=14	=14	=14	=14
*	*	*	*	*v:1	*v:2	*v:3	*
4E 4EE/	(8ddL 8f#/	.	8dd 8f#/	Te	I	Te	.
.	8b 8g#/	.	8b 8g#/	je-	je-	je-	.
2E 2AA/	8cc# 8a/	.	(8cc#L 8a/	-ży-	-ży-	-ży-	.
.	8bJ 8e/	.	8bJ 8e/)	.	.	.	.
.	4a 4c#/)	.	4a 4c#,/	-ny.	-ny.	-ny,	.
=15	=15	=15	=15	=15	=15	=15	=15
*	*	*	*^	*	*	*	*
2c# 2A\	(4.ee 4.a 4.e\	f	(4.ee/	2a\	Pój-	A	W do-	.
.	8cc#\)	.	8cc#/)	.	.	.	.	.
4c# 4A\	8aL 8e/	.	(<8a/L	4e\	-dziem,	zkąd-	-bry,	.
.	8b/J	.	8b/J)	.	.	.	.	.
=16	=16	=16	=16	=16	=16	=16	=16	=16
*	*^	*	*	*	*	*	*	*
2c# 2F#\	(4.ee 4.a 4.e/	2ryy	.	(4.ee/	2a\	pój-	-że	bło-	.
.	8cc#\)	.	.	8cc#/)	.	.	.	.	.
4c# 4F#\	(8a/L	4e\	.	(<8a/L	4e\	-dziem	je	-gi	.
.	8b/J	.	.	8b/J)	.	.	.	.	.
*	*v	*v	*	*	*	*	*	*	*
*	*	*	*v	*v	*	*	*	*
=17	=17	=17	=17	=17	=17	=17	=17
*ped	*	*	*	*	*	*	*
2.c# 2.A 2.C#\	2.ee 2.a 2.e/)	.	[2.ee [2.a\	w las!	masz?	czas.	.
=18	=18	=18	=18	=18	=18	=18	=18
*clefG2	*	*	*	*	*	*	*
*Xped	*	*	*	*	*	*	*
2a 2e 2c#/	2eee 2aa 2ee\	p	2ee] 2a\]	.	.	.	.
4r	4r	.	4r	.	.	.	.
*clefF4	*	*	*	*	*	*	*
!!LO:LB:g=original
=19	=19	=19	=19	=19	=19	=19	=19
*	*	*	*	*v:1	*v:2	*v:3	*
*	*	*	*^	*	*	*	*
!	!	!LO:DY:rj	!	!	!	!	!	!LO:DY:rj
2F# 2D\	(>4.a 4.d 4.A/	pp	(4.a/	(4.a\	Pój-	A	W do-	p
.	8f#/	.	8f#/)	8f#\)	.	.	.	.
4F# 4D\	8dL 8A/	.	8d/L	8d\L	-dziem,	zkąd-	-bry,	.
.	8e/J)	.	8e/J	8e\J	.	.	.	.
=20	=20	=20	=20	=20	=20	=20	=20	=20
2F# 2BB\	(>4.a 4.d 4.A/	>	(4.a/	2d\	pój-	-że	bło-	.
.	8f#/	.	8f#/)	.	.	.	.	.
4E 4EE/	8dL 8G#/	.	8d/L	4d\	-dziem	je	-gi	.
.	8e/J)	]	8e/J	.	.	.	.	.
*	*	*	*v	*v	*	*	*	*
=21	=21	=21	=21	=21	=21	=21	=21
*ped	*	*	*	*	*	*	*
2.E 2.AA/	2.a 2.c# 2.A/	.	[2.a [2.c#/	w las!	masz?	czas.	.
=22	=22	=22	=22	=22	=22	=22	=22
2e 2A\	2aa 2cc# 2a;\	.	2a] 2c#/]	.	.	.	.
4r	4r	.	4r	.	.	.	.
=:|!	=:|!	=:|!	=:|!	=:|!	=:|!	=:|!	=:|!
*-	*-	*-	*-	*-	*-	*-	*-
!!!system-decoration: p1{p2}
!!!RDF**kern: > = above
!!!RDF**kern: < = below
!!!ENC: Andrzej Gręziak
!!!END: 2025-03-06
!!!ENC: Marta Lawrence
!!!END: 2025-03-22
